public/icons/Alert-Severe-badge.svg

<svg width="24" height="24" viewBox="0 0 24 24" fill="none" xmlns="http://www.w3.org/2000/svg">
<g clip-path="url(#clip0_125_50)">
<path d="M12 17.998C12.6213 17.998 13.125 17.4943 13.125 16.873C13.125 16.2516 12.6213 15.748 12 15.748C11.3787 15.748 10.875 16.2516 10.875 16.873C10.875 17.4943 11.3787 17.998 12 17.998Z" fill="black"/>
<path d="M12 14.248C11.586 14.248 11.25 13.912 11.25 13.498V5.99805C11.25 5.58405 11.586 5.24805 12 5.24805C12.414 5.24805 12.75 5.58405 12.75 5.99805V13.498C12.75 13.912 12.413 14.248 12 14.248Z" fill="black"/>
<path d="M11.9995 23.997C11.3155 23.997 10.6725 23.7311 10.1895 23.249L0.749477 13.81C-0.248524 12.812 -0.248524 11.187 0.749477 10.189L10.1895 0.750023C10.6715 0.267023 11.3135 2.34379e-05 11.9965 -0.000976562C12.6815 -0.000976562 13.3235 0.264023 13.8065 0.746024C13.8135 0.753023 23.2504 10.189 23.2504 10.189C24.2475 11.188 24.2475 12.812 23.2504 13.81L13.8105 23.249C13.3265 23.7311 12.6835 23.997 11.9995 23.997ZM11.2495 22.188C11.4495 22.3871 11.7155 22.497 11.9995 22.497C12.2835 22.497 12.5495 22.3871 12.7495 22.187L22.1895 12.748C22.6024 12.334 22.6024 11.661 22.1895 11.247L12.7485 1.81002C12.7385 1.80102 12.7245 1.78503 12.7155 1.77503C12.5435 1.60602 12.2785 1.49902 12.0025 1.49902C11.7145 1.49902 11.4495 1.61003 11.2495 1.81002L1.80848 11.25C1.39548 11.664 1.39548 12.337 1.80848 12.75L11.2495 22.188Z" fill="black"/>
</g>
<defs>
<clipPath id="clip0_125_50">
<rect width="24" height="24" fill="white"/>
</clipPath>
</defs>
</svg>

<?xml version="1.0" encoding="utf-8"?>
<!-- Generator: Adobe Illustrator 22.1.0, SVG Export Plug-In . SVG Version: 6.00 Build 0)  -->
<svg version="1.1" id="Layer_1" xmlns="http://www.w3.org/2000/svg" xmlns:xlink="http://www.w3.org/1999/xlink" x="0px" y="0px"
	 viewBox="0 0 24 24" style="enable-background:new 0 0 24 24;" xml:space="preserve">
<title>alert-diamond</title>
<g>
	<circle cx="12" cy="16.873" r="1.125"/>
	<path d="M12,14.248c-0.414,0-0.75-0.336-0.75-0.75v-7.5c0-0.414,0.336-0.75,0.75-0.75s0.75,0.336,0.75,0.75v7.5
		C12.75,13.912,12.413,14.248,12,14.248z"/>
	<path d="M12,23.997c-0.684,0-1.327-0.266-1.81-0.748l-9.44-9.439c-0.998-0.998-0.998-2.623,0-3.621l9.44-9.439
		c0.482-0.483,1.124-0.75,1.807-0.751c0.685,0,1.327,0.265,1.81,0.747c0.007,0.007,9.444,9.443,9.444,9.443
		c0.997,0.999,0.997,2.623,0,3.621l-9.44,9.439C13.327,23.731,12.684,23.997,12,23.997z M11.25,22.188
		c0.2,0.199,0.466,0.309,0.75,0.309c0.284,0,0.55-0.11,0.75-0.31l9.44-9.439c0.413-0.414,0.413-1.087,0-1.501L12.749,1.81
		c-0.01-0.009-0.024-0.025-0.033-0.035c-0.172-0.169-0.437-0.276-0.713-0.276c-0.288,0-0.553,0.111-0.753,0.311l-9.441,9.44
		c-0.413,0.414-0.413,1.087,0,1.5h0L11.25,22.188z"/>
</g>
</svg>
